X:12
T:Yester House (2)
R:Reel
C:Niel Gow
O:Scotland
A:Inver (Perth)
B:(n233) Gow Collection of Scottish Dance Music - Oak Publications
Z:transcription (livre) : <anamnese@laposte.net>
M:C
L:1/8
Q:1/4=130 %tempo exact non connu
K:D
 a | e<A~e>c dGBg | e<A~e>c efg(b|\
a)>fg>e dGBd | ~e>dg>B {B}A2 A :|
 B | Aaa>f gGBd | Aaa>g aAab |\
 gdg>B {B}A2 AB |
   Aaa>f gGBd | Aa~a>g aAab |\
 gdg>B {B}A2 A |]
